X:429
T:Reel 429
M:4/4
K:Dmaj
L:1/8
FG|A>F (3FFF AFdF|GFAF E2dB|A>F (3FFF AFDF|EDEF D2dB|A<F (3FFF AFdF|GBAF E3B|AFAd BGBd|cABc d2|Bc|dAFA BAFA|dAFD E2EG|AFAd BGBd|cABc d2de|fdcd BcAB|AFDF E2EF|DEFG AdcB|AGFE D2|
